X: 1
T: New Year's Day in the Morning.
R: jig
Z: Jack Campin <jc:purr.demon.co.UK>
S: Musical Miscellanies, EPL qYML 288, p14
M: 6/8
L: 1/8
K: A
|: A2c d2f |  eca cBA | fdf ecA | GBA  GFE \
|  A2c d2f |  eca cBA | gba gfe | Bc^d e3 :|
|: Aed cBA | =GEG FED | dfe dcB | AFA  GFE \
|  gba gfe |  dBd cBA | fdf ecA | EFG  A3 :|
